; G-Code generated by Simplify3D(R) Version 4.0.0
; Dec 11, 2017 at 5:41:13 PM
; Settings Summary
;   processName,Process1
;   applyToModels,strut-ring,loupe-top
;   profileName,i3mk2s slow speed (modified)
;   profileVersion,2017-07-25 08:31:18
;   baseProfile,Prusa Research Original Prusa i3 MK2 (modified)
;   printMaterial,PLA
;   printQuality,High
;   printExtruders,
;   extruderName,Primary Extruder
;   extruderToolheadNumber,0
;   extruderDiameter,0.4
;   extruderAutoWidth,1
;   extruderWidth,0.48
;   extrusionMultiplier,1
;   extruderUseRetract,1
;   extruderRetractionDistance,1.5
;   extruderExtraRestartDistance,0
;   extruderRetractionZLift,0
;   extruderRetractionSpeed,1800
;   extruderUseCoasting,1
;   extruderCoastingDistance,0.2
;   extruderUseWipe,1
;   extruderWipeDistance,2
;   primaryExtruder,0
;   layerHeight,0.15
;   topSolidLayers,4
;   bottomSolidLayers,4
;   perimeterOutlines,10
;   printPerimetersInsideOut,1
;   startPointOption,1
;   startPointOriginX,0
;   startPointOriginY,0
;   sequentialIslands,0
;   spiralVaseMode,0
;   firstLayerHeightPercentage,110
;   firstLayerWidthPercentage,100
;   firstLayerUnderspeed,0.5
;   useRaft,1
;   raftExtruder,0
;   raftTopLayers,2
;   raftBaseLayers,1
;   raftOffset,3
;   raftSeparationDistance,0.25
;   raftTopInfill,40
;   aboveRaftSpeedMultiplier,0.9
;   useSkirt,1
;   skirtExtruder,0
;   skirtLayers,2
;   skirtOutlines,2
;   skirtOffset,4
;   usePrimePillar,0
;   primePillarExtruder,999
;   primePillarWidth,12
;   primePillarLocation,7
;   primePillarSpeedMultiplier,1
;   useOozeShield,0
;   oozeShieldExtruder,999
;   oozeShieldOffset,2
;   oozeShieldOutlines,1
;   oozeShieldSidewallShape,1
;   oozeShieldSidewallAngle,30
;   oozeShieldSpeedMultiplier,1
;   infillExtruder,0
;   internalInfillPattern,Fast Honeycomb
;   externalInfillPattern,Concentric
;   infillPercentage,50
;   outlineOverlapPercentage,20
;   infillExtrusionWidthPercentage,100
;   minInfillLength,5
;   infillLayerInterval,1
;   internalInfillAngles,0
;   overlapInternalInfillAngles,0
;   externalInfillAngles,45,-45
;   generateSupport,1
;   supportExtruder,0
;   supportInfillPercentage,10
;   supportExtraInflation,0
;   supportBaseLayers,0
;   denseSupportExtruder,0
;   denseSupportLayers,1
;   denseSupportInfillPercentage,15
;   supportLayerInterval,1
;   supportHorizontalPartOffset,0.3
;   supportUpperSeparationLayers,1
;   supportLowerSeparationLayers,1
;   supportType,0
;   supportGridSpacing,4
;   maxOverhangAngle,45
;   supportAngles,0
;   temperatureName,Primary Extruder,Heated Bed
;   temperatureNumber,0,0
;   temperatureSetpointCount,1,1
;   temperatureSetpointLayers,1,1
;   temperatureSetpointTemperatures,210,60
;   temperatureStabilizeAtStartup,1,1
;   temperatureHeatedBed,0,1
;   temperatureRelayBetweenLayers,0,0
;   temperatureRelayBetweenLoops,0,0
;   fanLayers,1,2
;   fanSpeeds,0,100
;   blipFanToFullPower,0
;   adjustSpeedForCooling,1
;   minSpeedLayerTime,15
;   minCoolingSpeedSlowdown,20
;   increaseFanForCooling,0
;   minFanLayerTime,45
;   maxCoolingFanSpeed,100
;   increaseFanForBridging,0
;   bridgingFanSpeed,100
;   use5D,1
;   relativeEdistances,0
;   allowEaxisZeroing,1
;   independentExtruderAxes,0
;   includeM10123,0
;   stickySupport,1
;   applyToolheadOffsets,0
;   gcodeXoffset,0
;   gcodeYoffset,0
;   gcodeZoffset,0
;   overrideMachineDefinition,1
;   machineTypeOverride,0
;   strokeXoverride,250
;   strokeYoverride,210
;   strokeZoverride,200
;   originOffsetXoverride,0
;   originOffsetYoverride,0
;   originOffsetZoverride,0
;   homeXdirOverride,-1
;   homeYdirOverride,-1
;   homeZdirOverride,-1
;   flipXoverride,1
;   flipYoverride,-1
;   flipZoverride,1
;   toolheadOffsets,0,0|0,0|0,0|0,0|0,0|0,0
;   overrideFirmwareConfiguration,1
;   firmwareTypeOverride,RepRap (Marlin/Repetier/Sprinter)
;   GPXconfigOverride,r2
;   baudRateOverride,250000
;   overridePrinterModels,1
;   printerModelsOverride
;   startingGcode,M115 U3.0.7 ; use the latest firmware version,G28 W ; home all axes without mesh bed leveling,G80 ; run mesh bed leveling routine,G1 Y-3.0 F1000.0 ; prepare to prime,G92 E0 ; reset extrusion distance,G1 X60.0 E9.0  F1000.0 ; priming,G1 X100.0 E12.5  F1000.0 ; priming
;   layerChangeGcode,
;   retractionGcode,
;   toolChangeGcode,
;   endingGcode,M106 S0 ; turn off cooling fan,M104 S0 ; turn off extruder,M140 S0 ; turn off bed,G1 X0 Y200 ; part removal,M84 ; disable motors
;   exportFileFormat,gcode
;   celebration,0
;   celebrationSong,Random Song
;   postProcessing,
;   defaultSpeed,2000
;   outlineUnderspeed,0.8
;   solidInfillUnderspeed,0.8
;   supportUnderspeed,0.8
;   rapidXYspeed,4400
;   rapidZspeed,8000
;   minBridgingArea,50
;   bridgingExtraInflation,0
;   bridgingExtrusionMultiplier,1
;   bridgingSpeedMultiplier,1
;   useFixedBridgingAngle,0
;   fixedBridgingAngle,0
;   applyBridgingToPerimeters,0
;   filamentDiameters,1.75|1.75|1.75|1.75|1.75|1.75
;   filamentPricesPerKg,46|46|46|46|46|46
;   filamentDensities,1.25|1.25|1.25|1.25|1.25|1.25
;   useMinPrintHeight,0
;   minPrintHeight,0
;   useMaxPrintHeight,0
;   maxPrintHeight,147
;   useDiaphragm,1
;   diaphragmLayerInterval,20
;   robustSlicing,1
;   mergeAllIntoSolid,0
;   onlyRetractWhenCrossingOutline,1
;   retractBetweenLayers,1
;   useRetractionMinTravel,0
;   retractionMinTravel,3
;   retractWhileWiping,1
;   onlyWipeOutlines,1
;   avoidCrossingOutline,0
;   maxMovementDetourFactor,3
;   toolChangeRetractionDistance,12
;   toolChangeExtraRestartDistance,-0.5
;   toolChangeRetractionSpeed,600
;   externalThinWallType,0
;   internalThinWallType,2
;   thinWallAllowedOverlapPercentage,25
;   singleExtrusionMinLength,1
;   singleExtrusionMinPrintingWidthPercentage,50
;   singleExtrusionMaxPrintingWidthPercentage,200
;   singleExtrusionEndpointExtension,0.2
;   horizontalSizeCompensation,0
G90
M82
M106 S0
M140 S60
M190 S60
M104 S210 T0
M109 S210 T0
M115 U3.0.7 ; use the latest firmware version
G28 W ; home all axes without mesh bed leveling
G80 ; run mesh bed leveling routine
G1 Y-3.0 F1000.0 ; prepare to prime
G92 E0 ; reset extrusion distance
G1 X60.0 E9.0  F1000.0 ; priming
G1 X100.0 E12.5  F1000.0 ; priming
G92 E0
G1 E-1.5000 F1800
G1 Z0.550 F8000
; process Process1
; layer 1, Z = 0.550
T0
; tool H0.550 W0.480
; skirt
G1 X30.604 Y64.705 F4400
G1 E0.0000 F540
G92 E0
G1 X30.610 Y64.702 E0.0007 F1000
G1 X31.864 Y64.123 E0.1523
G1 X31.869 Y64.120 E0.1530
G1 X31.984 Y64.070 E0.1667
G1 X31.989 Y64.067 E0.1674
G1 X33.262 Y63.530 E0.3190
G1 X33.268 Y63.528 E0.3197
G1 X33.384 Y63.481 E0.3334
G1 X33.390 Y63.479 E0.3341
G1 X34.680 Y62.986 E0.4857
G1 X34.686 Y62.984 E0.4864
G1 X34.803 Y62.941 E0.5001
G1 X34.809 Y62.939 E0.5008
G1 X36.116 Y62.490 E0.6524
G1 X36.121 Y62.488 E0.6531
G1 X36.240 Y62.449 E0.6668
G1 X36.246 Y62.448 E0.6675
G1 X37.567 Y62.043 E0.8191
G1 X37.573 Y62.041 E0.8198
G1 X37.693 Y62.007 E0.8335
G1 X37.699 Y62.005 E0.8342
G1 X39.033 Y61.646 E0.9858
G1 X39.039 Y61.644 E0.9865
G1 X39.160 Y61.614 E1.0002
G1 X39.166 Y61.612 E1.0009
G1 X40.511 Y61.298 E1.1525
G1 X40.517 Y61.297 E1.1532
G1 X40.639 Y61.271 E1.1669
G1 X40.645 Y61.269 E1.1676
G1 X42.001 Y61.001 E1.3192
G1 X42.007 Y61.000 E1.3199
G1 X42.130 Y60.978 E1.3336
G1 X42.136 Y60.977 E1.3343
G1 X43.500 Y60.755 E1.4859
G1 X43.506 Y60.754 E1.4866
G1 X43.629 Y60.736 E1.5003
G1 X43.635 Y60.735 E1.5010
G1 X45.006 Y60.560 E1.6526
G1 X45.012 Y60.559 E1.6533
G1 X45.136 Y60.545 E1.6670
G1 X45.142 Y60.545 E1.6676
G1 X46.517 Y60.416 E1.8193
G1 X46.524 Y60.415 E1.8200
G1 X46.648 Y60.406 E1.8337
G1 X46.654 Y60.405 E1.8344
G1 X48.034 Y60.323 E1.9860
G1 X48.040 Y60.323 E1.9867
G1 X48.164 Y60.318 E2.0004
G1 X48.171 Y60.317 E2.0011
G1 X49.552 Y60.282 E2.1527
G1 X49.558 Y60.282 E2.1534
G1 X49.683 Y60.281 E2.1671
G1 X49.689 Y60.281 E2.1678
G1 X51.070 Y60.293 E2.3194
G1 X51.076 Y60.293 E2.3201
G1 X51.201 Y60.296 E2.3338
G1 X51.208 Y60.296 E2.3344
G1 X52.588 Y60.355 E2.4861
G1 X52.594 Y60.355 E2.4868
G1 X52.719 Y60.363 E2.5005
G1 X52.725 Y60.363 E2.5012
G1 X54.102 Y60.469 E2.6528
G1 X54.108 Y60.469 E2.6535
G1 X54.233 Y60.481 E2.6672
G1 X54.239 Y60.481 E2.6678
G1 X55.612 Y60.634 E2.8195
G1 X55.618 Y60.634 E2.8202
G1 X55.742 Y60.650 E2.8339
G1 X55.748 Y60.651 E2.8346
G1 X57.116 Y60.850 E2.9862
G1 X57.122 Y60.851 E2.9869
G1 X57.245 Y60.871 E3.0006
G1 X57.251 Y60.872 E3.0012
G1 X58.611 Y61.117 E3.1529
G1 X58.617 Y61.118 E3.1536
G1 X58.739 Y61.142 E3.1673
G1 X58.745 Y61.143 E3.1679
G1 X60.096 Y61.434 E3.3196
G1 X60.102 Y61.436 E3.3203
G1 X60.223 Y61.464 E3.3340
G1 X60.229 Y61.466 E3.3346
G1 X61.569 Y61.802 E3.4863
G1 X61.575 Y61.804 E3.4870
G1 X61.696 Y61.836 E3.5007
G1 X61.702 Y61.838 E3.5013
G1 X63.029 Y62.220 E3.6530
G1 X63.035 Y62.222 E3.6536
G1 X63.155 Y62.259 E3.6674
G1 X63.161 Y62.260 E3.6680
G1 X64.475 Y62.687 E3.8197
G1 X64.480 Y62.689 E3.8204
G1 X64.599 Y62.730 E3.8341
G1 X64.604 Y62.732 E3.8347
G1 X65.903 Y63.203 E3.9864
G1 X65.909 Y63.205 E3.9870
G1 X66.026 Y63.250 E4.0008
G1 X66.031 Y63.252 E4.0014
G1 X67.313 Y63.767 E4.1531
G1 X67.319 Y63.770 E4.1537
G1 X67.434 Y63.818 E4.1675
G1 X67.440 Y63.821 E4.1681
G1 X68.703 Y64.379 E4.3198
G1 X68.709 Y64.381 E4.3204
G1 X68.822 Y64.434 E4.3342
G1 X68.828 Y64.437 E4.3348
G1 X70.072 Y65.038 E4.4865
G1 X70.077 Y65.040 E4.4871
G1 X70.189 Y65.096 E4.5009
G1 X70.194 Y65.099 E4.5015
G1 X71.417 Y65.742 E4.6532
G1 X71.423 Y65.745 E4.6538
G1 X71.532 Y65.805 E4.6676
G1 X71.538 Y65.808 E4.6682
G1 X72.738 Y66.492 E4.8199
G1 X72.743 Y66.495 E4.8205
G1 X72.851 Y66.559 E4.8343
G1 X72.856 Y66.562 E4.8349
G1 X74.032 Y67.286 E4.9866
G1 X74.038 Y67.290 E4.9872
G1 X74.143 Y67.357 E5.0010
G1 X74.148 Y67.360 E5.0016
G1 X75.299 Y68.124 E5.1533
G1 X75.304 Y68.128 E5.1539
G1 X75.407 Y68.198 E5.1677
G1 X75.412 Y68.202 E5.1683
G1 X76.537 Y69.004 E5.3200
G1 X76.542 Y69.008 E5.3206
G1 X76.642 Y69.082 E5.3344
G1 X76.647 Y69.086 E5.3350
G1 X77.744 Y69.926 E5.4867
G1 X77.749 Y69.930 E5.4873
G1 X77.847 Y70.008 E5.5011
G1 X77.851 Y70.012 E5.5017
G1 X78.919 Y70.889 E5.6534
G1 X78.923 Y70.893 E5.6540
G1 X79.019 Y70.974 E5.6678
G1 X79.023 Y70.978 E5.6684
G1 X80.060 Y71.890 E5.8201
G1 X80.065 Y71.894 E5.8207
G1 X80.157 Y71.979 E5.8345
G1 X80.162 Y71.983 E5.8351
G1 X81.167 Y72.930 E5.9868
G1 X81.172 Y72.934 E5.9874
G1 X81.261 Y73.022 E6.0012
G1 X81.266 Y73.026 E6.0018
G1 X82.238 Y74.007 E6.1535
G1 X82.243 Y74.011 E6.1541
G1 X82.329 Y74.102 E6.1679
G1 X82.333 Y74.106 E6.1685
G1 X83.272 Y75.120 E6.3202
G1 X83.276 Y75.124 E6.3208
G1 X83.360 Y75.217 E6.3345
G1 X83.364 Y75.222 E6.3352
G1 X84.268 Y76.267 E6.4869
G1 X84.272 Y76.271 E6.4875
G1 X84.352 Y76.367 E6.5013
G1 X84.356 Y76.372 E6.5019
G1 X85.224 Y77.447 E6.6536
G1 X85.227 Y77.452 E6.6542
G1 X85.304 Y77.550 E6.6679
G1 X85.308 Y77.555 E6.6686
G1 X86.139 Y78.659 E6.8203
G1 X86.142 Y78.664 E6.8209
G1 X86.216 Y78.765 E6.8346
G1 X86.219 Y78.770 E6.8353
G1 X87.012 Y79.901 E6.9869
G1 X87.016 Y79.906 E6.9876
G1 X87.086 Y80.010 E7.0013
G1 X87.089 Y80.015 E7.0020
G1 X87.843 Y81.172 E7.1537
G1 X87.847 Y81.178 E7.1543
G1 X87.913 Y81.283 E7.1680
G1 X87.916 Y81.289 E7.1687
G1 X88.090 Y81.577 E7.2057
G1 X88.207 Y81.390 E7.2298
G1 X88.210 Y81.385 E7.2305
G1 X88.277 Y81.281 E7.2441
G1 X88.280 Y81.275 E7.2447
G1 X89.020 Y80.167 E7.3911
G1 X89.024 Y80.162 E7.3917
G1 X89.094 Y80.060 E7.4053
G1 X89.098 Y80.055 E7.4060
G1 X89.875 Y78.972 E7.5523
G1 X89.879 Y78.967 E7.5529
G1 X89.952 Y78.868 E7.5665
G1 X89.956 Y78.863 E7.5672
G1 X90.769 Y77.807 E7.7135
G1 X90.773 Y77.802 E7.7142
G1 X90.850 Y77.705 E7.7278
G1 X90.854 Y77.701 E7.7284
G1 X91.702 Y76.672 E7.8747
G1 X91.706 Y76.667 E7.8754
G1 X91.786 Y76.573 E7.8890
G1 X91.790 Y76.569 E7.8896
G1 X92.672 Y75.569 E8.0360
G1 X92.676 Y75.565 E8.0366
G1 X92.760 Y75.474 E8.0502
G1 X92.764 Y75.469 E8.0509
G1 X93.679 Y74.500 E8.1972
G1 X93.684 Y74.496 E8.1979
G1 X93.770 Y74.407 E8.2114
G1 X93.774 Y74.403 E8.2121
G1 X94.722 Y73.465 E8.3584
G1 X94.726 Y73.461 E8.3591
G1 X94.815 Y73.375 E8.3727
G1 X94.820 Y73.371 E8.3733
G1 X95.798 Y72.465 E8.5196
G1 X95.803 Y72.461 E8.5203
G1 X95.895 Y72.379 E8.5339
G1 X95.899 Y72.375 E8.5345
G1 X96.908 Y71.503 E8.6809
G1 X96.912 Y71.499 E8.6815
G1 X97.007 Y71.419 E8.6951
G1 X97.012 Y71.416 E8.6958
G1 X98.049 Y70.578 E8.8421
G1 X98.053 Y70.574 E8.8428
G1 X98.151 Y70.498 E8.8563
G1 X98.156 Y70.494 E8.8570
G1 X99.220 Y69.692 E9.0033
G1 X99.225 Y69.688 E9.0040
G1 X99.325 Y69.615 E9.0176
G1 X99.330 Y69.612 E9.0182
G1 X100.421 Y68.846 E9.1646
G1 X100.426 Y68.842 E9.1652
G1 X100.528 Y68.773 E9.1788
G1 X100.533 Y68.769 E9.1795
G1 X101.649 Y68.040 E9.3258
G1 X101.655 Y68.037 E9.3264
G1 X101.759 Y67.971 E9.3400
G1 X101.764 Y67.968 E9.3407
G1 X102.904 Y67.277 E9.4870
G1 X102.909 Y67.273 E9.4877
G1 X103.016 Y67.211 E9.5012
G1 X103.021 Y67.208 E9.5019
G1 X104.184 Y66.555 E9.6482
G1 X104.189 Y66.553 E9.6489
G1 X104.298 Y66.494 E9.6625
G1 X104.303 Y66.491 E9.6631
G1 X105.487 Y65.878 E9.8095
G1 X105.493 Y65.875 E9.8101
G1 X105.603 Y65.820 E9.8237
G1 X105.609 Y65.817 E9.8244
G1 X106.812 Y65.244 E9.9707
G1 X106.818 Y65.242 E9.9713
G1 X106.930 Y65.190 E9.9849
G1 X106.936 Y65.188 E9.9856
G1 X108.158 Y64.656 E10.1319
G1 X108.164 Y64.653 E10.1326
G1 X108.278 Y64.606 E10.1461
G1 X108.284 Y64.604 E10.1468
G1 X109.523 Y64.113 E10.2931
G1 X109.529 Y64.110 E10.2938
G1 X109.644 Y64.067 E10.3074
G1 X109.650 Y64.065 E10.3080
G1 X110.905 Y63.616 E10.4544
G1 X110.911 Y63.614 E10.4550
G1 X111.028 Y63.574 E10.4686
G1 X111.034 Y63.572 E10.4693
G1 X112.304 Y63.165 E10.6156
G1 X112.309 Y63.164 E10.6163
G1 X112.428 Y63.128 E10.6298
G1 X112.434 Y63.126 E10.6305
G1 X113.716 Y62.762 E10.7768
G1 X113.722 Y62.761 E10.7775
G1 X113.841 Y62.729 E10.7911
G1 X113.847 Y62.728 E10.7917
G1 X115.141 Y62.407 E10.9380
G1 X115.147 Y62.406 E10.9387
G1 X115.268 Y62.378 E10.9523
G1 X115.274 Y62.377 E10.9529
G1 X116.578 Y62.100 E11.0993
G1 X116.584 Y62.099 E11.0999
G1 X116.705 Y62.075 E11.1135
G1 X116.711 Y62.074 E11.1142
G1 X118.024 Y61.841 E11.2605
G1 X118.030 Y61.840 E11.2612
G1 X118.152 Y61.821 E11.2747
G1 X118.158 Y61.820 E11.2754
G1 X119.478 Y61.631 E11.4217
G1 X119.484 Y61.630 E11.4224
G1 X119.606 Y61.615 E11.4360
G1 X119.612 Y61.614 E11.4366
G1 X120.938 Y61.470 E11.5830
G1 X120.944 Y61.469 E11.5836
G1 X121.067 Y61.458 E11.5972
G1 X121.073 Y61.457 E11.5979
G1 X122.402 Y61.358 E11.7442
G1 X122.408 Y61.357 E11.7448
G1 X122.532 Y61.350 E11.7584
G1 X122.538 Y61.350 E11.7591
G1 X123.870 Y61.295 E11.9054
G1 X123.876 Y61.295 E11.9061
G1 X123.999 Y61.292 E11.9196
G1 X124.005 Y61.292 E11.9203
G1 X125.339 Y61.282 E12.0666
G1 X125.345 Y61.282 E12.0673
G1 X125.468 Y61.283 E12.0809
G1 X125.474 Y61.283 E12.0815
G1 X126.807 Y61.318 E12.2279
G1 X126.813 Y61.318 E12.2285
G1 X126.937 Y61.323 E12.2421
G1 X126.943 Y61.324 E12.2428
G1 X128.273 Y61.403 E12.3891
G1 X128.280 Y61.403 E12.3897
G1 X128.403 Y61.413 E12.4033
G1 X128.409 Y61.413 E12.4040
G1 X129.736 Y61.538 E12.5503
G1 X129.742 Y61.538 E12.5510
G1 X129.865 Y61.552 E12.5645
G1 X129.871 Y61.552 E12.5652
G1 X131.194 Y61.721 E12.7115
G1 X131.200 Y61.722 E12.7122
G1 X131.322 Y61.740 E12.7258
G1 X131.328 Y61.740 E12.7264
G1 X132.644 Y61.953 E12.8728
G1 X132.650 Y61.955 E12.8734
G1 X132.772 Y61.976 E12.8870
G1 X132.778 Y61.977 E12.8877
G1 X134.086 Y62.234 E13.0340
G1 X134.092 Y62.236 E13.0347
G1 X134.213 Y62.262 E13.0482
G1 X134.219 Y62.263 E13.0489
G1 X135.517 Y62.564 E13.1952
G1 X135.523 Y62.565 E13.1959
G1 X135.643 Y62.595 E13.2094
G1 X135.649 Y62.597 E13.2101
G1 X136.937 Y62.941 E13.3564
G1 X136.943 Y62.943 E13.3571
G1 X137.062 Y62.976 E13.3707
G1 X137.067 Y62.978 E13.3713
G1 X138.343 Y63.366 E13.5177
G1 X138.349 Y63.367 E13.5183
G1 X138.467 Y63.405 E13.5319
G1 X138.472 Y63.407 E13.5326
G1 X139.734 Y63.837 E13.6789
G1 X139.740 Y63.839 E13.6796
G1 X139.856 Y63.881 E13.6931
G1 X139.862 Y63.883 E13.6938
G1 X141.109 Y64.355 E13.8401
G1 X141.114 Y64.358 E13.8408
G1 X141.229 Y64.403 E13.8543
G1 X141.235 Y64.406 E13.8550
G1 X142.465 Y64.919 E14.0013
G1 X142.471 Y64.922 E14.0020
G1 X142.584 Y64.971 E14.0156
G1 X142.589 Y64.974 E14.0163
G1 X143.802 Y65.529 E14.1626
G1 X143.807 Y65.531 E14.1632
G1 X143.919 Y65.585 E14.1768
